assets/dist/images/integrations/segment/data-warehouse.svg

<?xml version="1.0" encoding="UTF-8"?>
<svg width="374px" height="344px" viewBox="0 0 374 344" version="1.1" xmlns="http://www.w3.org/2000/svg" xmlns:xlink="http://www.w3.org/1999/xlink">
    <!-- Generator: Sketch 50.2 (55047) - http://www.bohemiancoding.com/sketch -->
    <title>data-warehouse</title>
    <desc>Created with Sketch.</desc>
    <defs></defs>
    <g id="Page-1" stroke="none" stroke-width="1" fill="none" fill-rule="evenodd">
        <g id="Segment-V6---Build" transform="translate(-903.000000, -1871.000000)">
            <g id="data-warehouse" transform="translate(903.000000, 1871.000000)">
                <path d="M24.1290323,344 C10.8029357,344 0,332.905775 0,319.220355 L0,99.1058617 C0,89.7191527 5.16461955,81.138235 13.3403087,76.9411911 L158.114502,2.62040462 C170.034307,-3.49870587 184.527495,1.46423601 190.485942,13.7054456 C192.160483,17.1456707 193.032258,20.9389744 193.032258,24.7850752 L193.032258,77.4323849 C193.032258,77.4876134 193.07703,77.5323849 193.132258,77.5323849 C193.148142,77.5323849 193.163797,77.5286012 193.177927,77.5213473 L339.082244,2.62040462 C351.002049,-3.49870587 365.495237,1.46423601 371.453684,13.7054456 C373.128224,17.1456707 374,20.9389744 374,24.7850752 L374,320 C374,333.254834 363.254834,344 350,344 L24.1290323,344 Z" id="Combined-Shape-Copy" fill="#01B2D0" opacity="0.0555245536"></path>
                <rect id="Rectangle-8-Copy" fill="#FFC111" x="59" y="158" width="39" height="39" rx="10"></rect>
                <rect id="Rectangle-8-Copy-2" fill="#01B2D0" opacity="0.223493304" x="118" y="158" width="39" height="39" rx="10"></rect>
                <rect id="Rectangle-8-Copy-3" fill="#01B2D0" opacity="0.223493304" x="118" y="226" width="39" height="39" rx="10"></rect>
                <rect id="Rectangle-8-Copy-4" fill="#01B2D0" opacity="0.223493304" x="59" y="226" width="39" height="39" rx="10"></rect>
                <rect id="Rectangle-8-Copy-5" fill="#01B2D0" opacity="0.223493304" x="216" y="158" width="39" height="39" rx="10"></rect>
                <rect id="Rectangle-8-Copy-6" fill="#FFC111" x="276" y="158" width="39" height="39" rx="10"></rect>
                <rect id="Rectangle-8-Copy-7" fill="#01B2D0" opacity="0.223493304" x="276" y="226" width="39" height="39" rx="10"></rect>
                <rect id="Rectangle-8-Copy-8" fill="#FFC111" x="216" y="226" width="39" height="39" rx="10"></rect>
            </g>
        </g>
    </g>
</svg>

<svg width="374" height="344" viewBox="0 0 374 344" xmlns="http://www.w3.org/2000/svg"><g fill="none" fill-rule="evenodd"><path d="M24.129 344C10.803 344 0 332.906 0 319.22V99.106c0-9.387 5.165-17.968 13.34-22.165l144.775-74.32c11.92-6.12 26.412-1.157 32.37 11.084a25.328 25.328 0 012.547 11.08v52.647a.1.1 0 00.146.09L339.082 2.62c11.92-6.119 26.413-1.156 32.372 11.085A25.328 25.328 0 01374 24.785V320c0 13.255-10.745 24-24 24H24.129z" fill="#01B2D0" opacity=".056"/><rect fill="#FFC111" x="59" y="158" width="39" height="39" rx="10"/><rect fill="#01B2D0" opacity=".223" x="118" y="158" width="39" height="39" rx="10"/><rect fill="#01B2D0" opacity=".223" x="118" y="226" width="39" height="39" rx="10"/><rect fill="#01B2D0" opacity=".223" x="59" y="226" width="39" height="39" rx="10"/><rect fill="#01B2D0" opacity=".223" x="216" y="158" width="39" height="39" rx="10"/><rect fill="#FFC111" x="276" y="158" width="39" height="39" rx="10"/><rect fill="#01B2D0" opacity=".223" x="276" y="226" width="39" height="39" rx="10"/><rect fill="#FFC111" x="216" y="226" width="39" height="39" rx="10"/></g></svg>
